!!!OTL: Battle Hymn of the Republic
!!!COM: Steffe, William
!!!LYR: Howe, Julia Ward
!!!ODT: unknown
!!!YOR: Gospel's Greatest
!!!YOY: 2000
!!!AST: Patriotic song
!!!YEC: Brian Luke, 2001
**kern	**harm
*k[b-e-]	*k[b-e-]
*M4/4	*M4/4
*B-:	*B-:
*>A	*>A
8f	.
=1	=1
8.f	I
16f	.
8.f	.
16e-	.
8.d	.
16f	.
8.b-	.
16cc	.
=2	=2
8.dd	.
16dd	.
8.dd	.
16cc	.
4b-	.
8.b-	.
16a	.
=3	=3
8.g	IV
16g	.
8.g	.
16a	.
8.b-	.
16a	.
8.b-	.
16g	.
=4	=4
8.f	I
16g	.
8.f	.
16d	.
4f	.
*>A'	*>A'
8.f	.
16f	.
=5	=5
8.f	I
16f	.
8.f	.
16e-	.
8.d	.
16f	.
8.b-	.
16cc	.
=6	=6
8.dd	.
16dd	.
8.dd	.
16cc	.
4b-	.
4b-	.
=7	=7
4cc	ii7
4cc	.
4b-	Ic
4a	V7
=8	=8
2b-	I;
2r	.
*>B	*>B
=9	=9
4.f	I
8e-	.
8.d	.
16f	.
8.b-	.
16cc	.
=10	=10
2dd	.
4b-	.
4r	.
=11	=11
4.g	IV
8a	.
8.b-	.
16a	.
8.b-	.
16g	.
=12	=12
2f	I
4d	.
4r	.
*>B'	*>B'
=13	=13
4.f	I
8e-	.
8.d	.
16f	.
8.b-	.
16cc	.
=14	=14
2dd	.
4b-	.
4b-	.
=15	=15
4cc	ii7
4cc	.
4b-	Ic
4a	V7
=16	=16
1b-	I;
*-	*-
